X: 3
T: Devil's Dream, The (R-7)
M: C|
Z: Transcribed to abc by Mary Lou Knack
R: reel
K: A
e2| "A"agae agae| agae fedc| "Bm"dfBf dfBf| dfBf "E"agfe|
    "A"agae agae| agae fedc| "D"dfed "A"cABA| "E"E2A2 "A"A2 :|
|:e2| "A"ceAe ceAe| ceAe fedc| "Bm"dfBf dfBf| dfBf "E"agfe|
    "A"ceAe ceAe| ceAe fedc| "D"dfed "A"cABA| "E"E2A2 "A"A2 :|
%%text 04/13/02 

#include "LeftHeader.h"
%%text Set 76
%%vskip -1cm
% ---------- set 76 ----------
% Rock Valley (C) / Little Burnt Potato (D) / Irishman's Heart to the Ladies (A)
%%scale .65
